lib/icons/twitter.svg

<svg width="20" height="17" fill="none" xmlns="http://www.w3.org/2000/svg"><path d="M20 2.375c-.75.375-1.5.5-2.375.625.875-.5 1.5-1.25 1.75-2.25-.75.5-1.625.75-2.625 1C16 1 14.875.5 13.75.5c-2.125 0-4 1.875-4 4.125 0 .375 0 .625.125.875-3.375-.125-6.5-1.75-8.5-4.25-.375.625-.5 1.25-.5 2.125C.875 4.75 1.625 6 2.75 6.75c-.625 0-1.25-.25-1.875-.5 0 2 1.375 3.625 3.25 4-.375.125-.75.125-1.125.125-.25 0-.5 0-.75-.125.5 1.625 2 2.875 3.875 2.875C4.75 14.25 3 14.875 1 14.875H0C1.875 16 4 16.75 6.25 16.75c7.5 0 11.625-6.25 11.625-11.625v-.5C18.75 4 19.5 3.25 20 2.375Z" fill="#1da1f2"/></svg>

<svg width="20" height="17" viewBox="0 0 20 17" fill="none" xmlns="http://www.w3.org/2000/svg">
<path d="M20 2.375C19.25 2.75 18.5 2.875 17.625 3C18.5 2.5 19.125 1.75 19.375 0.75C18.625 1.25 17.75 1.5 16.75 1.75C16 1 14.875 0.5 13.75 0.5C11.625 0.5 9.75 2.375 9.75 4.625C9.75 5 9.75 5.25 9.875 5.5C6.5 5.375 3.375 3.75 1.375 1.25C1 1.875 0.875 2.5 0.875 3.375C0.875 4.75 1.625 6 2.75 6.75C2.125 6.75 1.5 6.5 0.875 6.25C0.875 8.25 2.25 9.875 4.125 10.25C3.75 10.375 3.375 10.375 3 10.375C2.75 10.375 2.5 10.375 2.25 10.25C2.75 11.875 4.25 13.125 6.125 13.125C4.75 14.25 3 14.875 1 14.875C0.625 14.875 0.375 14.875 0 14.875C1.875 16 4 16.75 6.25 16.75C13.75 16.75 17.875 10.5 17.875 5.125C17.875 5 17.875 4.75 17.875 4.625C18.75 4 19.5 3.25 20 2.375Z" fill="#1da1f2"/>
</svg>
